X:1
T:I'll be seeing you
T:I'll be seeing you
T:Sammy Fain
C:Sammy Fain
Z:All Rights Reserved
L:1/8
M:4/4
K:Eb
V:1 treble 
%%MIDI program 0
V:1
"Ebmaj7" G6 F2 |"G7" F E2 D- D2 E2 |"Fm7" A3 G"C7" G3 F |"Fm7" F3 =E E2 F2 | A3 G"C7" G3 F | %5
w: I'll be|see ing you * in|all the old fa-|mi- liar pla- ces|That this heart of|
"Fm" F3 =E E2"Bb7" F2 |"Eb" ^F G2 c- c4- | c6 z2 ||"Cm" e6"Cm9" d2 | d c2 =B- B2 c2 |"Fm7" e6 d2 | %11
w: mine em- brac- es|All day through *||In that|small ca- fe * the|park ac-|
 d c2 =B- B2 c2 |"Fm7/Bb" c6"Bb7" B2 |"Bb+7" B ^F2 F- F2 d2 |"Eb" c G2 G-"C7" G2 c2 | %15
w: cross the way * The|chil- dren's|car- ous- el * the|chest- nut trees * the|
"Bb+7" ^F C2 C- C4 ||"Eb" G6 F2 |"G+7" F E2 D- D2 E2 |"Fm" A3 G"C7" G3 F |"Fm" F3 =E E2 F2 | %20
w: wish- ing well. *|I'll be|see- ing you * in|ev ery love- ly|sum- mer's day In|
 A3 G"C7" G3 F |"Fm" F3 =E E2"Bb7" F2 |"Gm7b5" B3 A A3 G |"C7" G3 ^F F2 G2 ||"Fm" c3 c B2 A2 | %25
w: ev- ery thing that's|light and gay, I'll|al- ways think of|you that way I'll|see you in the|
"G7" d3 d c2 =B2 |"Cm" e2 e2 d2 c2 |"F9" G6 FG |"Fm7" AAAA A4- |"Fm7b5" AAB_c B2 A2 |"Eb" e8- | %31
w: morn- ing sun And|when the night is|through I'll be|look- ing at the moon,|* But I'll be see- ing|you.|
 e8 |] %32
w: |

